icons/golang-filled.svg

<svg xmlns="http://www.w3.org/2000/svg" width="256" height="256" fill="none" viewBox="0 0 256 256"><rect width="256" height="256" fill="#00B4E0" rx="60"/><path fill="#fff" d="M40.5 113.234C40.1 113.234 40 113.034 40.2 112.734L42.3 110.034C42.5 109.734 43 109.534 43.4 109.534H79.1C79.5 109.534 79.6 109.834 79.4 110.134L77.7 112.734C77.5 113.034 77 113.334 76.7 113.334L40.5 113.234Z"/><path fill="#fff" d="M25.4 122.434C25 122.434 24.9 122.234 25.1 121.934L27.2 119.234C27.4 118.934 27.9 118.734 28.3 118.734H73.9C74.3 118.734 74.5 119.034 74.4 119.334L73.6 121.734C73.5 122.134 73.1 122.334 72.7 122.334L25.4 122.434Z"/><path fill="#fff" d="M49.6 131.634C49.2 131.634 49.1 131.334 49.3 131.034L50.7 128.534C50.9 128.234 51.3 127.934 51.7 127.934H71.7C72.1 127.934 72.3 128.234 72.3 128.634L72.1 131.034C72.1 131.434 71.7 131.734 71.4 131.734L49.6 131.634Z"/><path fill="#fff" d="M153.4 111.434C147.1 113.034 142.8 114.234 136.6 115.834C135.1 116.234 135 116.334 133.7 114.834C132.2 113.134 131.1 112.034 129 111.034C122.7 107.934 116.6 108.834 110.9 112.534C104.1 116.934 100.6 123.434 100.7 131.534C100.8 139.534 106.3 146.134 114.2 147.234C121 148.134 126.7 145.734 131.2 140.634C132.1 139.534 132.9 138.334 133.9 136.934C130.3 136.934 125.8 136.934 114.6 136.934C112.5 136.934 112 135.634 112.7 133.934C114 130.834 116.4 125.634 117.8 123.034C118.1 122.434 118.8 121.434 120.3 121.434C125.4 121.434 144.2 121.434 156.7 121.434C156.5 124.134 156.5 126.834 156.1 129.534C155 136.734 152.3 143.334 147.9 149.134C140.7 158.634 131.3 164.534 119.4 166.134C109.6 167.434 100.5 165.534 92.5 159.534C85.1 153.934 80.9 146.534 79.8 137.334C78.5 126.434 81.7 116.634 88.3 108.034C95.4 98.7343 104.8 92.8343 116.3 90.7343C125.7 89.0343 134.7 90.1343 142.8 95.6343C148.1 99.1343 151.9 103.934 154.4 109.734C155 110.634 154.6 111.134 153.4 111.434Z"/><path fill="#fff" d="M186.5 166.734C177.4 166.534 169.1 163.934 162.1 157.934C156.2 152.834 152.5 146.334 151.3 138.634C149.5 127.334 152.6 117.334 159.4 108.434C166.7 98.8343 175.5 93.8343 187.4 91.7343C197.6 89.9343 207.2 90.9343 215.9 96.8343C223.8 102.234 228.7 109.534 230 119.134C231.7 132.634 227.8 143.634 218.5 153.034C211.9 159.734 203.8 163.934 194.5 165.834C191.8 166.334 189.1 166.434 186.5 166.734ZM210.3 126.334C210.2 125.034 210.2 124.034 210 123.034C208.2 113.134 199.1 107.534 189.6 109.734C180.3 111.834 174.3 117.734 172.1 127.134C170.3 134.934 174.1 142.834 181.3 146.034C186.8 148.434 192.3 148.134 197.6 145.434C205.5 141.334 209.8 134.934 210.3 126.334Z"/></svg>

<svg xmlns="http://www.w3.org/2000/svg" width="256" height="256" fill="none"><rect width="256" height="256" fill="#00B4E0" rx="60"/><path fill="#fff" d="M40.5 113.234c-.4 0-.5-.2-.3-.5l2.1-2.7c.2-.3.7-.5 1.1-.5h35.7c.4 0 .5.3.3.6l-1.7 2.6c-.2.3-.7.6-1 .6zm-15.1 9.2c-.4 0-.5-.2-.3-.5l2.1-2.7c.2-.3.7-.5 1.1-.5h45.6c.4 0 .6.3.5.6l-.8 2.4c-.1.4-.5.6-.9.6zm24.2 9.2c-.4 0-.5-.3-.3-.6l1.4-2.5c.2-.3.6-.6 1-.6h20c.4 0 .6.3.6.7l-.2 2.4c0 .4-.4.7-.7.7zm103.8-20.2c-6.3 1.6-10.6 2.8-16.8 4.4-1.5.4-1.6.5-2.9-1-1.5-1.7-2.6-2.8-4.7-3.8-6.3-3.1-12.4-2.2-18.1 1.5-6.8 4.4-10.3 10.9-10.2 19 .1 8 5.6 14.6 13.5 15.7 6.8.9 12.5-1.5 17-6.6.9-1.1 1.7-2.3 2.7-3.7h-19.3c-2.1 0-2.6-1.3-1.9-3 1.3-3.1 3.7-8.3 5.1-10.9.3-.6 1-1.6 2.5-1.6h36.4c-.2 2.7-.2 5.4-.6 8.1-1.1 7.2-3.8 13.8-8.2 19.6-7.2 9.5-16.6 15.4-28.5 17-9.8 1.3-18.9-.6-26.9-6.6-7.4-5.6-11.6-13-12.7-22.2-1.3-10.9 1.9-20.7 8.5-29.3 7.1-9.3 16.5-15.2 28-17.3 9.4-1.7 18.4-.6 26.5 4.9 5.3 3.5 9.1 8.3 11.6 14.1.6.9.2 1.4-1 1.7"/><path fill="#fff" d="M186.5 166.734c-9.1-.2-17.4-2.8-24.4-8.8-5.9-5.1-9.6-11.6-10.8-19.3-1.8-11.3 1.3-21.3 8.1-30.2 7.3-9.6 16.1-14.6 28-16.7 10.2-1.8 19.8-.8 28.5 5.1 7.9 5.4 12.8 12.7 14.1 22.3 1.7 13.5-2.2 24.5-11.5 33.9-6.6 6.7-14.7 10.9-24 12.8-2.7.5-5.4.6-8 .9m23.8-40.4c-.1-1.3-.1-2.3-.3-3.3-1.8-9.9-10.9-15.5-20.4-13.3-9.3 2.1-15.3 8-17.5 17.4-1.8 7.8 2 15.7 9.2 18.9 5.5 2.4 11 2.1 16.3-.6 7.9-4.1 12.2-10.5 12.7-19.1"/></svg>
